packages/icons/src/lib/svgs/bin.svg

<svg
        aria-hidden="true"
        data-testid="test-icon"
        fill="none"
        
        viewBox="0 0 24 24"
        
        xmlns="http://www.w3.org/2000/svg"
        
    >
        <title>bin icon</title>
        <path
            fillRule="evenodd"
            clipRule="evenodd"
            d="M9.99998 3.50549C9.8619 3.50549 9.74998 3.61742 9.74998 3.75549V4.51006H14.25V3.75549C14.25 3.61742 14.138 3.50549 14 3.50549H9.99998ZM15.75 4.51006V3.75549C15.75 2.78899 14.9665 2.00549 14 2.00549H9.99998C9.03348 2.00549 8.24998 2.78899 8.24998 3.75549V4.51006L4.75011 4.50993C4.3359 4.50991 4.00009 4.84567 4.00006 5.25988C4.00003 5.6741 4.33579 6.00992 4.75002 6.00996L5.24998 6.01V20.2579C5.24998 21.2244 6.03348 22.0079 6.99998 22.0079H17C17.9665 22.0079 18.75 21.2244 18.75 20.2579V6.01006H19.2501C19.6643 6.01006 20.0001 5.67427 20.0001 5.26006C20.0001 4.84585 19.6643 4.51006 19.2501 4.51006H15.75ZM17.25 6.01006H6.74998V20.2579C6.74998 20.396 6.8619 20.5079 6.99998 20.5079H17C17.138 20.5079 17.25 20.396 17.25 20.2579V6.01006ZM10.0001 18.4999C9.58585 18.4999 9.25006 18.1641 9.25006 17.7499V9.24988C9.25006 8.83566 9.58585 8.49988 10.0001 8.49988C10.4143 8.49988 10.7501 8.83566 10.7501 9.24988V17.7499C10.7501 18.1641 10.4143 18.4999 10.0001 18.4999ZM14.0001 18.4999C13.5858 18.4999 13.2501 18.1641 13.2501 17.7499V9.24988C13.2501 8.83566 13.5858 8.49988 14.0001 8.49988C14.4143 8.49988 14.7501 8.83566 14.7501 9.24988V17.7499C14.7501 18.1641 14.4143 18.4999 14.0001 18.4999Z"
            fill="currentColor"
        />
    </svg>

<svg aria-hidden="true" data-testid="test-icon" fill="currentColor" viewBox="0 0 24 24" xmlns="http://www.w3.org/2000/svg"><path fill-rule="evenodd" clip-rule="evenodd" d="M10 3.505a.25.25 0 00-.25.25v.755h4.5v-.755a.25.25 0 00-.25-.25h-4zm5.75 1.005v-.755A1.75 1.75 0 0014 2.005h-4a1.75 1.75 0 00-1.75 1.75v.755h-3.5a.75.75 0 000 1.5h.5v14.248c0 .966.783 1.75 1.75 1.75h10a1.75 1.75 0 001.75-1.75V6.01h.5a.75.75 0 000-1.5h-3.5zm1.5 1.5H6.75v14.248c0 .138.112.25.25.25h10a.25.25 0 00.25-.25V6.01zM10 18.5a.75.75 0 01-.75-.75v-8.5a.75.75 0 011.5 0v8.5a.75.75 0 01-.75.75zm4 0a.75.75 0 01-.75-.75v-8.5a.75.75 0 111.5 0v8.5a.75.75 0 01-.75.75z"/></svg>
